svgs/thin/sitemap.svg

<svg xmlns="http://www.w3.org/2000/svg" viewBox="0 0 576 512"><!--! Font Awesome Pro 6.6.0 by @fontawesome - https://fontawesome.com License - https://fontawesome.com/license (Commercial License) Copyright 2024 Fonticons, Inc. --><path d="M320 48c17.7 0 32 14.3 32 32l0 64c0 17.7-14.3 32-32 32l-64 0c-17.7 0-32-14.3-32-32l0-64c0-17.7 14.3-32 32-32l64 0zM256 32c-26.5 0-48 21.5-48 48l0 64c0 26.5 21.5 48 48 48l24 0 0 56-168 0c-22.1 0-40 17.9-40 40l0 32-24 0c-26.5 0-48 21.5-48 48l0 64c0 26.5 21.5 48 48 48l64 0c26.5 0 48-21.5 48-48l0-64c0-26.5-21.5-48-48-48l-24 0 0-32c0-13.3 10.7-24 24-24l168 0 0 56-24 0c-26.5 0-48 21.5-48 48l0 64c0 26.5 21.5 48 48 48l64 0c26.5 0 48-21.5 48-48l0-64c0-26.5-21.5-48-48-48l-24 0 0-56 168 0c13.3 0 24 10.7 24 24l0 32-24 0c-26.5 0-48 21.5-48 48l0 64c0 26.5 21.5 48 48 48l64 0c26.5 0 48-21.5 48-48l0-64c0-26.5-21.5-48-48-48l-24 0 0-32c0-22.1-17.9-40-40-40l-168 0 0-56 24 0c26.5 0 48-21.5 48-48l0-64c0-26.5-21.5-48-48-48l-64 0zM48 336l64 0c17.7 0 32 14.3 32 32l0 64c0 17.7-14.3 32-32 32l-64 0c-17.7 0-32-14.3-32-32l0-64c0-17.7 14.3-32 32-32zm208 0l64 0c17.7 0 32 14.3 32 32l0 64c0 17.7-14.3 32-32 32l-64 0c-17.7 0-32-14.3-32-32l0-64c0-17.7 14.3-32 32-32zm208 0l64 0c17.7 0 32 14.3 32 32l0 64c0 17.7-14.3 32-32 32l-64 0c-17.7 0-32-14.3-32-32l0-64c0-17.7 14.3-32 32-32z"/></svg>

<svg xmlns="http://www.w3.org/2000/svg" viewBox="0 0 576 512"><!--! Font Awesome Pro 6.4.0 by @fontawesome - https://fontawesome.com License - https://fontawesome.com/license (Commercial License) Copyright 2023 Fonticons, Inc. --><path d="M320 48c17.7 0 32 14.3 32 32v64c0 17.7-14.3 32-32 32H256c-17.7 0-32-14.3-32-32V80c0-17.7 14.3-32 32-32h64zM256 32c-26.5 0-48 21.5-48 48v64c0 26.5 21.5 48 48 48h24v56H112c-22.1 0-40 17.9-40 40v32H48c-26.5 0-48 21.5-48 48v64c0 26.5 21.5 48 48 48h64c26.5 0 48-21.5 48-48V368c0-26.5-21.5-48-48-48H88V288c0-13.3 10.7-24 24-24H280v56H256c-26.5 0-48 21.5-48 48v64c0 26.5 21.5 48 48 48h64c26.5 0 48-21.5 48-48V368c0-26.5-21.5-48-48-48H296V264H464c13.3 0 24 10.7 24 24v32H464c-26.5 0-48 21.5-48 48v64c0 26.5 21.5 48 48 48h64c26.5 0 48-21.5 48-48V368c0-26.5-21.5-48-48-48H504V288c0-22.1-17.9-40-40-40H296V192h24c26.5 0 48-21.5 48-48V80c0-26.5-21.5-48-48-48H256zM48 336h64c17.7 0 32 14.3 32 32v64c0 17.7-14.3 32-32 32H48c-17.7 0-32-14.3-32-32V368c0-17.7 14.3-32 32-32zm208 0h64c17.7 0 32 14.3 32 32v64c0 17.7-14.3 32-32 32H256c-17.7 0-32-14.3-32-32V368c0-17.7 14.3-32 32-32zm208 0h64c17.7 0 32 14.3 32 32v64c0 17.7-14.3 32-32 32H464c-17.7 0-32-14.3-32-32V368c0-17.7 14.3-32 32-32z"/></svg>
